logo/apple.svg

<?xml version="1.0" encoding="UTF-8" standalone="no"?>
<svg width="256px" height="315px" viewBox="0 0 256 315" version="1.1" xmlns="http://www.w3.org/2000/svg" xmlns:xlink="http://www.w3.org/1999/xlink" preserveAspectRatio="xMidYMid">
    <g>
        <path d="M213.803394,167.030943 C214.2452,214.609646 255.542482,230.442639 256,230.644727 C255.650812,231.761357 249.401383,253.208293 234.24263,275.361446 C221.138555,294.513969 207.538253,313.596333 186.113759,313.991545 C165.062051,314.379442 158.292752,301.507828 134.22469,301.507828 C110.163898,301.507828 102.642899,313.596301 82.7151126,314.379442 C62.0350407,315.16201 46.2873831,293.668525 33.0744079,274.586162 C6.07529317,235.552544 -14.5576169,164.286328 13.147166,116.18047 C26.9103111,92.2909053 51.5060917,77.1630356 78.2026125,76.7751096 C98.5099145,76.3877456 117.677594,90.4371851 130.091705,90.4371851 C142.497945,90.4371851 165.790755,73.5415029 190.277627,76.0228474 C200.528668,76.4495055 229.303509,80.1636878 247.780625,107.209389 C246.291825,108.132333 213.44635,127.253405 213.803394,167.030988 M174.239142,50.1987033 C185.218331,36.9088319 192.607958,18.4081019 190.591988,0 C174.766312,0.636050225 155.629514,10.5457909 144.278109,23.8283506 C134.10507,35.5906758 125.195775,54.4170275 127.599657,72.4607932 C145.239231,73.8255433 163.259413,63.4970262 174.239142,50.1987249" fill="#000000"></path>
    </g>
</svg>

<svg viewBox="0 0 256 315" xmlns="http://www.w3.org/2000/svg"><path d="M213.8 167.03c.44 47.57 41.73 63.41 42.19 63.61 -.35 1.11-6.6 22.56-21.76 44.71 -13.11 19.15-26.71 38.23-48.13 38.63 -21.06.38-27.83-12.49-51.89-12.49 -24.07 0-31.59 12.08-51.51 12.87 -20.69.78-36.43-20.72-49.65-39.8 -27-39.04-47.64-110.3-19.93-158.41 13.76-23.89 38.35-39.02 65.05-39.41 20.3-.39 39.47 13.66 51.88 13.66 12.4 0 35.69-16.9 60.18-14.42 10.25.42 39.02 4.14 57.5 31.18 -1.49.92-34.34 20.04-33.98 59.82M174.18 50.14c10.97-13.29 18.36-31.8 16.35-50.2 -15.83.63-34.97 10.54-46.32 23.82 -10.18 11.76-19.09 30.58-16.68 48.63 17.63 1.36 35.65-8.97 46.63-22.27"/></svg>
